X:105
T:Spootiskerry
C:SOCAN, Sc.  
M:4/4
L:1/8
%% Q:1/2=112
K:G 
 |: G2 DE GDEG | DEGA B2 AB | G2 DE GABd | eged B2 AB |
    G2 DE GDEG | DEGA B2 AB | g2 ed edBA |1 B2 G2 G2 DE :|2 B2 G2 G2 ef |
  |: g2 ed ed B2 | BABG E2 DE | GABd eged | B2 A2 A2 ef |
  g2 ed ed B2 | BABG E2 DE | GABd eged | B2 G2 G2 ef |
  g2 ed ed B2 | BABG E2 DE | GABd eged | B2 A2 A2 DE |
  G2 DE GDEG | DEGA B2 AB | g2 ed edBA | B2 G2 G4 ||
%%%%  A composed "Shetland" tune.  Easy to play!
%%text
%%text
